X: 1039
T:Humours of Bandon (A20)
N: page A20
N: heptatonic
R: Jig
Z: id:dc-setdance-9
M:6/8
L:1/8
K:G
D|"G"DGG GFG|ABG FGA|BGG GFG|\
"D"Ade fef|vd2ve uc2uA|"G"BAG FGA|
BAG "D"FEF|"G"G3 G2:|uB|dgg gfg|\
"D"a/b/ag fga|g/a/gf  ud2ue|
f/g/fd cde|"G"d/e/dc uB2 ud|"D"c/d/cB uG2 uA|\
"G"B/c/BG FGA|vG2vF uD2uC|DGG GFG|
ABG FGA|BGG GFG|Gde "D"f2e|"G"d2e "D"c2A|"G"BAG "D"FGA|\
"G"BAG "D"FEF|"G"G3G2z|
